neru-dark-classic/22x22/actions/edit-paste-symbolic.svg

<?xml version="1.0" encoding="UTF-8" standalone="no"?>
<svg
   xmlns:dc="http://purl.org/dc/elements/1.1/"
   xmlns:cc="http://creativecommons.org/ns#"
   xmlns:rdf="http://www.w3.org/1999/02/22-rdf-syntax-ns#"
   xmlns:svg="http://www.w3.org/2000/svg"
   xmlns="http://www.w3.org/2000/svg"
   xmlns:sodipodi="http://sodipodi.sourceforge.net/DTD/sodipodi-0.dtd"
   xmlns:inkscape="http://www.inkscape.org/namespaces/inkscape"
   width="22"
   height="22"
   viewBox="0 0 22 22"
   version="1.1"
   id="svg7"
   sodipodi:docname="edit-paste-symbolic.svg"
   inkscape:version="0.92.1 r">
  <metadata
     id="metadata11">
    <rdf:RDF>
      <cc:Work
         rdf:about="">
        <dc:format>image/svg+xml</dc:format>
        <dc:type
           rdf:resource="http://purl.org/dc/dcmitype/StillImage" />
        <dc:title></dc:title>
      </cc:Work>
    </rdf:RDF>
  </metadata>
  <sodipodi:namedview
     pagecolor="#ffffff"
     bordercolor="#666666"
     borderopacity="1"
     objecttolerance="10"
     gridtolerance="10"
     guidetolerance="10"
     inkscape:pageopacity="0"
     inkscape:pageshadow="2"
     inkscape:window-width="769"
     inkscape:window-height="480"
     id="namedview9"
     showgrid="false"
     inkscape:zoom="10.727273"
     inkscape:cx="11"
     inkscape:cy="11"
     inkscape:window-x="0"
     inkscape:window-y="0"
     inkscape:window-maximized="0"
     inkscape:current-layer="svg7" />
  <defs
     id="defs3">
    <style
       type="text/css"
       id="current-color-scheme">
   .ColorScheme-Text { color:#d3dae3; } .ColorScheme-Highlight { color:#5294e2; }
  </style>
  </defs>
  <path
     style="fill:currentColor;opacity:1"
     class="ColorScheme-Text"
     transform="translate(3 3)"
     d="M 8 0.00390625 C 6.8954 0.00390625 6 0.89933625 6 2.0039062 L 3 2.0039062 C 2 2.0039062 2 3.0039062 2 3.0039062 L 2 14.003906 C 2 15.003906 3 15.003906 3 15.003906 L 13 15.003906 C 13 15.003906 14 15.003906 14 14.003906 L 14 3.0039062 C 14 2.0039062 13 2.0039062 13 2.0039062 L 10 2.0039062 C 10 1.8658363 9.99495 1.7278563 9.96875 1.5976562 C 9.78226 0.68628625 8.9666 0.00390625 8 0.00390625 z M 8 1.0039062 C 8.41421 1.0039062 8.75444 1.2699863 8.90625 1.6289062 C 8.95685 1.7485462 9 1.8658363 9 2.0039062 C 9 2.5561863 8.55229 3.0039062 8 3.0039062 C 7.44771 3.0039062 7 2.5561863 7 2.0039062 C 7 1.4516262 7.44771 1.0039062 8 1.0039062 z M 4 4.0039062 L 5 4.0039062 L 5 5.0039062 L 11 5.0039062 L 11 4.0039062 L 12 4.0039062 L 12 13.003906 L 4 13.003906 L 4 4.0039062 z"
     id="path5" />
</svg>

<svg xmlns="http://www.w3.org/2000/svg" width="22" height="22" version="1.1" id="svg7"><defs id="defs3"><style type="text/css" id="current-color-scheme"></style></defs><path transform="translate(3 3)" d="M8 .004a2 2 0 0 0-2 2H3c-1 0-1 1-1 1v11c0 1 1 1 1 1h10s1 0 1-1v-11c0-1-1-1-1-1h-3c0-.138-.005-.276-.031-.406A2.008 2.008 0 0 0 8 .004zm0 1c.414 0 .754.266.906.625A.94.94 0 0 1 9 2.004a1 1 0 1 1-1-1zm-4 3h1v1h6v-1h1v9H4v-9z" id="path5" fill="currentColor" opacity="1" color="#d3dae3"/></svg>
